X: 38142
T: Sporting Nell
R: reel
M: 4/4
K: Dmixolydian
AD (3EFG AB cd|dccA GED2|AD (3EFG AB cA|1 GEED AFD2:|2 GEED FAd2||
dedc A2 (3Bcd|edcA G2 Ad|dedc ABcA|GEED FAd2|
dedc A2 (3Bcd|edcA G2 Adde|f2 ed|cAGE EDAF||
AD (3EFG AB cA|dBcA GED2|AD (3EFG AB cA|1 GEED AFD2:|2 GEED FAd2||

